X:1
T:Title
%%score { 1 | 2 }
L:1/8
M:6/4
K:F
V:1 treble nm="Grand Piano"
V:2 bass 
V:1
 z6 z4[Q:1/4=150] A2 | c6 c3 d c2 | F6 E6 | [EG]6 [EG]3 [FA] [GB]2 | A6 c6 |[M:1/4] A2 | %6
[M:6/4] c6 c3 d c2 | F6 F4 [DG]2 | [CFA] [Fc]3 [Fc]2 [FA]4 [CG]2 | %9
[M:5/4] [A,CF]2- [A,CF]2- [A,CF]6 |] %10
V:2
 z6 z4 [F,C]2 | [F,A,F]6 [F,A,F]3 [F,B,F] [F,A,F]2 | [F,A,C]6 [F,A,C]6 | %3
 [C,C]6 [C,C]3 [C,C] [C,C]2 | [F,CF]6 [F,,F,A,F]6 |[M:1/4] [F,C]2 | %6
[M:6/4] [F,A,F]6 [F,A,F]3 [F,B,F] [F,A,F]2 | [F,A,C]6 [D,A,D]4 G,,2 | %8
 C, [C,A,]3 [C,A,]2 [C,C]4 [C,B,]2 |[M:5/4] [F,,F,]2- [F,,F,]2- [F,,F,]6 |] %10

